humanity-icon-theme/Humanity/apps/24/evolution.svg

<?xml version="1.0" encoding="UTF-8" standalone="no"?>
<!-- Created with Inkscape (http://www.inkscape.org/) -->

<svg
   xmlns:svg="http://www.w3.org/2000/svg"
   xmlns="http://www.w3.org/2000/svg"
   xmlns:xlink="http://www.w3.org/1999/xlink"
   version="1.1"
   width="24"
   height="24"
   viewBox="0 0 24 24"
   id="svg6850"
   xml:space="preserve">
<defs
   id="defs7232"><radialGradient
     cx="605.71429"
     cy="486.64789"
     r="117.14286"
     fx="605.71429"
     fy="486.64789"
     id="radialGradient5031"
     xlink:href="#linearGradient5060"
     gradientUnits="userSpaceOnUse"
     gradientTransform="matrix(-2.774389,0,0,1.969706,112.7623,-872.8854)" /><linearGradient
     id="linearGradient5060"><stop
       id="stop5062"
       style="stop-color:black;stop-opacity:1"
       offset="0" /><stop
       id="stop5064"
       style="stop-color:black;stop-opacity:0"
       offset="1" /></linearGradient><radialGradient
     cx="605.71429"
     cy="486.64789"
     r="117.14286"
     fx="605.71429"
     fy="486.64789"
     id="radialGradient5029"
     xlink:href="#linearGradient5060"
     gradientUnits="userSpaceOnUse"
     gradientTransform="matrix(2.774389,0,0,1.969706,-1891.633,-872.8854)" /><linearGradient
     id="linearGradient5048"><stop
       id="stop5050"
       style="stop-color:black;stop-opacity:0"
       offset="0" /><stop
       id="stop5056"
       style="stop-color:black;stop-opacity:1"
       offset="0.5" /><stop
       id="stop5052"
       style="stop-color:black;stop-opacity:0"
       offset="1" /></linearGradient><linearGradient
     x1="302.85715"
     y1="366.64789"
     x2="302.85715"
     y2="609.50507"
     id="linearGradient5027"
     xlink:href="#linearGradient5048"
     gradientUnits="userSpaceOnUse"
     gradientTransform="matrix(2.774389,0,0,1.969706,-1892.179,-872.8854)" /><linearGradient
     id="linearGradient2136">
  <stop
   id="stop2138"
   style="stop-color:#a0a0a0;stop-opacity:1"
   offset="0" />
  <stop
   id="stop2140"
   style="stop-color:#6e6e6e;stop-opacity:1"
   offset="1" />
</linearGradient><linearGradient
     id="linearGradient15107">
  <stop
   id="stop15109"
   style="stop-color:white;stop-opacity:1"
   offset="0" />
  <stop
   id="stop15111"
   style="stop-color:#e2e2e2;stop-opacity:1"
   offset="1" />
</linearGradient><linearGradient
     id="linearGradient18913">
  <stop
   id="stop18915"
   style="stop-color:#ededed;stop-opacity:1"
   offset="0" />
  <stop
   id="stop18917"
   style="stop-color:#c8c8c8;stop-opacity:1"
   offset="1" />
</linearGradient><linearGradient
     id="linearGradient2166">
  <stop
   id="stop2168"
   style="stop-color:white;stop-opacity:1"
   offset="0" />
  <stop
   id="stop2170"
   style="stop-color:#dcdcdc;stop-opacity:1"
   offset="1" />
</linearGradient><linearGradient
     id="linearGradient2152">
  <stop
   id="stop2154"
   style="stop-color:#9e9e9e;stop-opacity:1"
   offset="0" />
  <stop
   id="stop2156"
   style="stop-color:#b9b9b9;stop-opacity:1"
   offset="1" />
</linearGradient><linearGradient
     id="linearGradient9749">
  <stop
   id="stop9751"
   style="stop-color:white;stop-opacity:1"
   offset="0" />
  <stop
   id="stop9753"
   style="stop-color:#ededed;stop-opacity:1"
   offset="1" />
</linearGradient><linearGradient
     id="linearGradient2274">
  <stop
   id="stop2276"
   style="stop-color:black;stop-opacity:0.12871288"
   offset="0" />
  <stop
   id="stop2278"
   style="stop-color:black;stop-opacity:0"
   offset="1" />
</linearGradient><linearGradient
     x1="8.7803764"
     y1="37.784683"
     x2="9.7619219"
     y2="32.203163"
     id="linearGradient2915"
     xlink:href="#linearGradient2274"
     gradientUnits="userSpaceOnUse"
     gradientTransform="matrix(1.3354712,0,0,0.43105065,-0.42182444,0.18966274)" /><linearGradient
     x1="11.233107"
     y1="13.686079"
     x2="21.111549"
     y2="24.132717"
     id="linearGradient2920"
     xlink:href="#linearGradient9749"
     gradientUnits="userSpaceOnUse"
     gradientTransform="matrix(0.75035044,0,0,0.7493493,-0.24079477,0.55981911)" /><linearGradient
     x1="8.9156475"
     y1="37.197018"
     x2="9.8855038"
     y2="52.090679"
     id="linearGradient2923"
     xlink:href="#linearGradient2152"
     gradientUnits="userSpaceOnUse"
     gradientTransform="matrix(1.3994307,0,0,0.41854392,-0.50786525,0.23152052)" /><linearGradient
     x1="8.9156475"
     y1="37.197018"
     x2="9.8855038"
     y2="52.090679"
     id="linearGradient2926"
     xlink:href="#linearGradient2152"
     gradientUnits="userSpaceOnUse"
     gradientTransform="matrix(1.3994307,0,0,0.42560663,-0.50786525,-0.03588678)" /><linearGradient
     x1="10.18424"
     y1="15.148383"
     x2="15.310744"
     y2="29.568739"
     id="linearGradient2929"
     xlink:href="#linearGradient2166"
     gradientUnits="userSpaceOnUse"
     gradientTransform="matrix(1.01448,0,0,0.56743941,-0.42182444,0.38967374)" /><linearGradient
     x1="5.8266134"
     y1="7.2310905"
     x2="13.467486"
     y2="17.876846"
     id="linearGradient2935"
     xlink:href="#linearGradient18913"
     gradientUnits="userSpaceOnUse"
     gradientTransform="matrix(0.88289911,0,0,0.65243183,-0.2677173,0.49322185)" /><linearGradient
     x1="11.572842"
     y1="4.7461624"
     x2="18.475286"
     y2="26.022909"
     id="linearGradient2938"
     xlink:href="#linearGradient15107"
     gradientUnits="userSpaceOnUse"
     gradientTransform="matrix(0.76308682,0,0,0.76209835,-0.46180076,0.37257168)" /><linearGradient
     x1="2.0618775"
     y1="15.257116"
     x2="30.599684"
     y2="15.257116"
     id="linearGradient2940"
     xlink:href="#linearGradient2136"
     gradientUnits="userSpaceOnUse"
     gradientTransform="matrix(0.76308682,0,0,0.76209835,-0.46180076,0.37257168)" /></defs>


	
	
<g
   transform="matrix(0.01182013,0,0,0.00627146,22.513252,21.945088)"
   id="g5022"
   style="opacity:0.84924622;display:inline"><rect
     width="1339.6335"
     height="478.35718"
     x="-1559.2523"
     y="-150.69685"
     id="rect4173"
     style="opacity:0.40206185;color:black;fill:url(#linearGradient5027);fill-opacity:1;fill-rule:nonzero;stroke:none;stroke-width:1;marker:none;visibility:visible;display:inline;overflow:visible" /><path
     d="m -219.61876,-150.68038 c 0,0 0,478.33079 0,478.33079 142.874166,0.90045 345.40022,-107.16966 345.40014,-239.196175 0,-132.026537 -159.436816,-239.134595 -345.40014,-239.134615 z"
     id="path5058"
     style="opacity:0.40206185;color:black;fill:url(#radialGradient5029);fill-opacity:1;fill-rule:nonzero;stroke:none;stroke-width:1;marker:none;visibility:visible;display:inline;overflow:visible" /><path
     d="m -1559.2523,-150.68038 c 0,0 0,478.33079 0,478.33079 -142.8742,0.90045 -345.4002,-107.16966 -345.4002,-239.196175 0,-132.026537 159.4368,-239.134595 345.4002,-239.134615 z"
     id="path5018"
     style="opacity:0.40206185;color:black;fill:url(#radialGradient5031);fill-opacity:1;fill-rule:nonzero;stroke:none;stroke-width:1;marker:none;visibility:visible;display:inline;overflow:visible" /></g><path
   d="m 1.5000126,9.3260827 0,13.1739173 20.9999754,0 -0.03468,-13.1107027 C 22.463308,8.648842 15.735424,1.499988 14.494285,1.499988 l -4.857201,0 c -1.3048652,0 -8.1370675,7.1282577 -8.1370675,7.8260947 z"
   id="path12723"
   style="fill:url(#linearGradient2938);fill-opacity:1;fill-rule:evenodd;stroke:url(#linearGradient2940);stroke-width:0.99999994;stroke-linecap:butt;stroke-linejoin:round;stroke-miterlimit:4;stroke-opacity:1;stroke-dasharray:none" /><path
   d="M 2.005318,9.5015113 C 1.7815649,9.2658817 8.6874094,2 9.7314391,2 l 4.7083369,0 c 0.982329,0 7.89052,7.1917227 7.547902,7.6066108 L 15.882164,17 8.9602747,16.825629 2.005318,9.5015113 z"
   id="path18153"
   style="fill:url(#linearGradient2935);fill-opacity:1;fill-rule:evenodd;stroke:none" /><path
   d="M 8.6106978,16.766499 4.521585,11.93975 18.361118,8.111866 20,11.442977 15.914791,16.752541"
   id="path2164"
   style="fill:black;fill-opacity:0.14619883;fill-rule:evenodd;stroke:none" /><path
   d="M 8.1725316,16.666425 4,11.804296 17.744202,8 l 1.769964,3.460842 -4.037542,5.191625"
   id="path2162"
   style="fill:black;fill-opacity:0.14619883;fill-rule:evenodd;stroke:none" /><path
   d="M 8.4421721,16.73314 4.1623929,11.953567 18.085341,8.0549211 l 1.781883,3.5551919 -4.120958,5.10907"
   id="path2160"
   style="fill:black;fill-opacity:0.14619883;fill-rule:evenodd;stroke:none" /><path
   d="M 8.3410563,17 4.2519424,12.173252 18.031893,8.3689555 l 1.650798,3.4254605 -4.03754,5.191627"
   id="path15105"
   style="fill:url(#linearGradient2929);fill-opacity:1;fill-rule:evenodd;stroke:none" /><path
   d="M 9.5306917,16.006012 1.8938723,22.134263 9.8230759,17 l 5.1411031,0 7.079894,5.066058 -6.763143,-6.060046 -5.7502383,0 z"
   id="path14245"
   style="fill:url(#linearGradient2926);fill-opacity:1;fill-rule:evenodd;stroke:none" /><path
   d="M 1.8203347,9.3175809 8.3855164,17.181 8.9946513,16.711485 1.8203347,9.3175809 z"
   id="path14339"
   style="color:black;fill:url(#linearGradient2923);fill-opacity:1;fill-rule:evenodd;stroke:none;stroke-width:1;marker:none;visibility:visible;display:inline;overflow:visible" /><path
   d="m 2.4283048,9.5245576 0.01705,12.0471404 19.1263432,0 -0.03411,-11.9816922 C 21.536542,9.2012032 15.398563,2.4283021 14.21206,2.4283021 l -4.3215296,0 c -1.2327335,0 -7.4628012,6.6912348 -7.4622282,7.0962555 z"
   id="path15103"
   style="fill:none;stroke:url(#linearGradient2920);stroke-width:0.85660428;stroke-linecap:butt;stroke-linejoin:miter;stroke-miterlimit:4;stroke-opacity:1" /><path
   d="m 9.7979681,17 -6.807652,4.413224 1.2652622,0.0033 L 9.9553452,17.643638 14.984569,17 l -5.1866009,0 0,0 0,0 z"
   id="path17393"
   style="fill:white;fill-opacity:1;fill-rule:evenodd;stroke:none" /><path
   d="M 4.7195187,12.17271 5.4402005,12.938175 17.836907,9.2019901 19.34072,12.187948 19.691088,11.801577 18.086991,8.4381746 4.7195187,12.17271 z"
   id="path2174"
   style="fill:white;fill-opacity:1;fill-rule:evenodd;stroke:none" /><path
   d="m 5.3934822,13.044801 3.3604829,3.5617 0.6673304,-0.566098 5.6246375,0.02358 0.45283,0.400987 2.216488,-2.618204 C 17.071754,13.068386 5.3934822,13.044798 5.3934822,13.044798 z"
   id="path2272"
   style="fill:url(#linearGradient2915);fill-opacity:1;fill-rule:evenodd;stroke:none" />

</svg>

<?xml version="1.0" encoding="UTF-8" standalone="no"?>
<!-- Created with Inkscape (http://www.inkscape.org/) -->
<svg id="svg6850" xmlns="http://www.w3.org/2000/svg" xml:space="preserve" height="24" width="24" version="1.1" xmlns:xlink="http://www.w3.org/1999/xlink" viewBox="0 0 24 24">
<defs id="defs7232"><radialGradient id="radialGradient5031" xlink:href="#linearGradient5060" gradientUnits="userSpaceOnUse" cy="486.65" cx="605.71" gradientTransform="matrix(-2.7744 0 0 1.9697 112.76 -872.89)" r="117.14"/><linearGradient id="linearGradient5060"><stop id="stop5062" offset="0"/><stop id="stop5064" style="stop-opacity:0" offset="1"/></linearGradient><radialGradient id="radialGradient5029" xlink:href="#linearGradient5060" gradientUnits="userSpaceOnUse" cy="486.65" cx="605.71" gradientTransform="matrix(2.7744 0 0 1.9697 -1891.6 -872.89)" r="117.14"/><linearGradient id="linearGradient5027" y2="609.51" gradientUnits="userSpaceOnUse" x2="302.86" gradientTransform="matrix(2.7744 0 0 1.9697 -1892.2 -872.89)" y1="366.65" x1="302.86"><stop id="stop5050" style="stop-opacity:0" offset="0"/><stop id="stop5056" offset=".5"/><stop id="stop5052" style="stop-opacity:0" offset="1"/></linearGradient><linearGradient id="linearGradient2152">
  <stop id="stop2154" style="stop-color:#9e9e9e" offset="0"/>
  <stop id="stop2156" style="stop-color:#b9b9b9" offset="1"/>
</linearGradient><linearGradient id="linearGradient2915" y2="32.203" gradientUnits="userSpaceOnUse" x2="9.7619" gradientTransform="matrix(1.3355 0 0 .43105 -.42182 .18966)" y1="37.785" x1="8.7804"><stop id="stop2276" style="stop-opacity:.12871" offset="0"/><stop id="stop2278" style="stop-opacity:0" offset="1"/></linearGradient><linearGradient id="linearGradient2920" y2="24.133" gradientUnits="userSpaceOnUse" x2="21.112" gradientTransform="matrix(.75035 0 0 .74935 -.24079 .55982)" y1="13.686" x1="11.233"><stop id="stop9751" style="stop-color:#fff" offset="0"/><stop id="stop9753" style="stop-color:#ededed" offset="1"/></linearGradient><linearGradient id="linearGradient2923" y2="52.091" xlink:href="#linearGradient2152" gradientUnits="userSpaceOnUse" x2="9.8855" gradientTransform="matrix(1.3994 0 0 .41854 -.50787 .23152)" y1="37.197" x1="8.9156"/><linearGradient id="linearGradient2926" y2="52.091" xlink:href="#linearGradient2152" gradientUnits="userSpaceOnUse" x2="9.8855" gradientTransform="matrix(1.3994 0 0 .42561 -.50787 -.035887)" y1="37.197" x1="8.9156"/><linearGradient id="linearGradient2929" y2="29.569" gradientUnits="userSpaceOnUse" x2="15.311" gradientTransform="matrix(1.0145 0 0 .56744 -.42182 .38967)" y1="15.148" x1="10.184"><stop id="stop2168" style="stop-color:#fff" offset="0"/><stop id="stop2170" style="stop-color:#dcdcdc" offset="1"/></linearGradient><linearGradient id="linearGradient2935" y2="17.877" gradientUnits="userSpaceOnUse" x2="13.467" gradientTransform="matrix(.88290 0 0 .65243 -.26772 .49322)" y1="7.2311" x1="5.8266"><stop id="stop18915" style="stop-color:#ededed" offset="0"/><stop id="stop18917" style="stop-color:#c8c8c8" offset="1"/></linearGradient><linearGradient id="linearGradient2938" y2="26.023" gradientUnits="userSpaceOnUse" x2="18.475" gradientTransform="matrix(.76309 0 0 .76210 -.46180 .37257)" y1="4.7462" x1="11.573"><stop id="stop15109" style="stop-color:#fff" offset="0"/><stop id="stop15111" style="stop-color:#e2e2e2" offset="1"/></linearGradient><linearGradient id="linearGradient2940" y2="15.257" gradientUnits="userSpaceOnUse" x2="30.6" gradientTransform="matrix(.76309 0 0 .76210 -.46180 .37257)" y1="15.257" x1="2.0619"><stop id="stop2138" style="stop-color:#a0a0a0" offset="0"/><stop id="stop2140" style="stop-color:#6e6e6e" offset="1"/></linearGradient></defs>
<g id="g5022" style="opacity:.84925" transform="matrix(.011820 0 0 .0062715 22.513 21.945)"><rect id="rect4173" style="opacity:.40206;color:black;fill:url(#linearGradient5027)" height="478.36" width="1339.6" y="-150.7" x="-1559.3"/><path id="path5058" style="opacity:.40206;color:black;fill:url(#radialGradient5029)" d="m-219.62-150.68v478.33c142.87 0.90045 345.4-107.17 345.4-239.2s-159.44-239.13-345.4-239.13z"/><path id="path5018" style="opacity:.40206;color:black;fill:url(#radialGradient5031)" d="m-1559.3-150.68v478.33c-142.87 0.90045-345.4-107.17-345.4-239.2s159.44-239.13 345.4-239.13z"/></g><path id="path12723" style="stroke-linejoin:round;fill-rule:evenodd;stroke:url(#linearGradient2940);fill:url(#linearGradient2938)" d="m1.5 9.3261v13.174h21l-0.03468-13.111c-0.002-0.7402-6.73-7.889-7.971-7.889h-4.8572c-1.3049 0-8.1371 7.1283-8.1371 7.8261z"/><path id="path18153" style="fill:url(#linearGradient2935);fill-rule:evenodd" d="m2.0053 9.5015c-0.2237-0.2356 6.6821-7.5015 7.7261-7.5015h4.7083c0.98233 0 7.8905 7.1917 7.5479 7.6066l-6.106 7.3934-6.9217-0.174-6.955-7.3245z"/><path id="path2164" style="fill-opacity:.14620;fill-rule:evenodd" d="m8.6107 16.766-4.0891-4.826 13.839-3.8281 1.639 3.3311-4.085 5.31"/><path id="path2162" style="fill-opacity:.14620;fill-rule:evenodd" d="m8.1725 16.666-4.1725-4.862 13.744-3.804l1.77 3.4608-4.0375 5.1916"/><path id="path2160" style="fill-opacity:.14620;fill-rule:evenodd" d="m8.4422 16.733-4.2798-4.779 13.923-3.8991l1.7819 3.5552-4.121 5.1091"/><path id="path15105" style="fill:url(#linearGradient2929);fill-rule:evenodd" d="m8.3411 17-4.0892-4.827 13.78-3.804l1.6508 3.4255-4.0375 5.1916"/><path id="path14245" style="fill:url(#linearGradient2926);fill-rule:evenodd" d="m9.5307 16.006-7.6368 6.128 7.9292-5.134h5.1411l7.0799 5.0661-6.7631-6.06h-5.7502z"/><path id="path14339" style="color:black;fill-rule:evenodd;fill:url(#linearGradient2923)" d="m1.8203 9.3176 6.5652 7.8634 0.6092-0.47-7.1744-7.3934z"/><path id="path15103" style="stroke:url(#linearGradient2920);stroke-width:.85660;fill:none" d="m2.4283 9.5246 0.01705 12.047h19.126l-0.03411-11.982c0-0.3888-6.138-7.1617-7.325-7.1617h-4.3215c-1.2327 0-7.4628 6.6912-7.4622 7.0963z"/><path id="path17393" style="fill:#fff;fill-rule:evenodd" d="m9.798 17-6.8077 4.4132 1.2653 0.0033l5.6997-3.772 5.0297-0.644h-5.1866z"/><path id="path2174" style="fill:#fff;fill-rule:evenodd" d="m4.7195 12.173 0.7207 0.765 12.397-3.736 1.504 2.986 0.35-0.386-1.604-3.3638-13.368 3.7348z"/><path id="path2272" style="fill:url(#linearGradient2915);fill-rule:evenodd" d="m5.3935 13.045 3.3605 3.5617 0.66733-0.5661 5.6246 0.02358 0.45283 0.40099 2.2165-2.6182c-0.644-0.78-12.322-0.803-12.322-0.803z"/>
</svg>
